X:326
T:
R:polska
S:Från Gotlands fornsal.
O:Gotland
M:3/4
L:1/16
K:F
c2AB cdef gfed|d2c2 c=BdB c4|c2e2 e2g2 fedc|c2f2 a2c'2 bagf|
f2e2 e2g2 fedc|c2f2 a2f2 bagf|fedc d2eg b2g2|feag g4f4:|
|:c4 c2c2 d2c2|c2=B2 _B2A2 G4|c2cB cdef g2c2|d2d2 G2G2 c2cB|
Acfc Acfc a2f2|GBdB GBdB g2e2|fefg acde fABd|cBAG G2F2 F4:|

